!!!COM: Music21
!!!OTL: Pasacorredoiras
!!!OMV: pezas_pasacorredoiras_pasacorredoiras-2_pasacorredoiras-partitura-1.musicxml
**kern
*I"Bagpipes
*I'Bag
*clefG^2
*k[b-]
*F:
*M2/4
=1
!LO:TX:a:t=Allegretto
*MM120
!LO:TX:a:t=[quarter]=120
4r
8.bb-L
16ggJk
=||
8.cccL
16ggJk
16cccLL
16bb-
16aa
16ggJJ
=
8.aaL
16ffJk
8.bb-L
16ggJk
=
8.aaL
16ffJk
16eeLL
16ff
16gg
16aaJJ
=
16bb-LL
16aa
16gg
16ffJJ
8.bb-L
16ggJk
=
8.cccL
16ggJk
16cccLL
16bb-
16aa
16ggJJ
=
8aaL
8ffJ
8.bb-L
16ggJk
!!linebreak:original
=
8.aaL
16ffJk
16eeLL
16ff
16gg
16aaJJ
=
4ff
8.bb-L
16ggJk
=||
8.cccL
16ggJk
16cccLL
16bb-
16aa
16ggJJ
=
8.aaL
16ffJk
8.bb-L
16ggJk
=
8.aaL
16ffJk
16eeLL
16ff
16gg
16aaJJ
=
16bb-LL
16aa
16gg
16ffJJ
8.bb-L
16ggJk
=
8.cccL
16ggJk
16cccLL
16bb-
16aa
16ggJJ
!!linebreak:original
=
8aaL
8ffJ
8.bb-L
16ggJk
!!linebreak:original
=
8.aaL
16ffJk
16eeLL
16ff
16gg
16aaJJ
=
*k[]
*C:
4ee
16ccLL
16ee
16dd
16bJJ
=||
16ccLL
16ee
16dd
16bJJ
16bLL
16dd
16cc
16bJJ
=
8ddL
8ccJ
16ccLL
16dd
16ee
16ffJJ
=
16aaLL
16gg
16ee
16ccJJ
16ggLL
16ff
16dd
16bJJ
!!linebreak:original
=
8.ddL
16ccJk
16eeLL
16aa
16gg
16eeJJ
=
16eeLL
16gg
16ff
16ddJJ
16eeLL
16ff
16dd
16bJJ
=
8ddL
8ccJ
16ccLL
16dd
16ee
16ffJJ
=
16aaLL
16gg
16ee
16ccJJ
16ggLL
16ff
16dd
16bJJ
=
2cc
==
*-
